X:1
T:Lord Ronald
M:3/4
L:1/4
K:G
 E/2| D D D| B A3/2 F/2| E D D| D- D3/2 E/2| D D D| d de/2-d/2| c G A|\
 c2 A| d d e|d/2-c/2 A E| G G c| A2G/2-G/2| d3/2 c/2A/2 G/2| c AA/2-G/2|\
 E D D| D2- D/2||
